X: 444
T: Gurty's Frolics
C:anon.
O:Ireland
B:Francis O'Neill: "The Dance Music of Ireland" (1907) no. 444
R:Hop, Slip jig
Z:Transcribed by Frank Nordberg - http://www.musicaviva.com
F:http://www.musicaviva.com/abc/tunes/ireland/oneill-1001/oneill-1001-044
4.abc
M:9/8
L:1/8
K:D
A,DD A,DD FEF|A,DD DFA GFE|A,DD A,DD FzF|GFG ECE GFE::FDF A2F A2F|
FDF A2F GFE|FDF A2F A2F|GFG ECE GFE::Add def gfg|Add dfa gfe|Add def g2g|
gfg ece gfe:|
|:fdf a2f a2g|fdf a2f gfe|fdf a2f a2f|gfg ece gfe::aff dff dff|aff dfa gf
e|
aff dff dff|gfg ece gfe::dff agf/e/ d2A|dff agf gfe|dff agf/e/ def|gfg ec
e gfe:|
|:f/g/af dec dAF|DFA def gfe|f/g/af ded def|gfg ece gfe::a/g/fe dfe d2d|a
fd def gec|
d/f/ec dec dAF|G/A/BA GEF GFE::A2A dcB A2B|AFD DFD EFG|AFA BGB cBA|GFG EC
E GFE:|
W:
W:
W:  From Musica Viva - http://www.musicaviva.com
W:  the Internet center for free sheet music downloads.


